X:1
T:Pittsford
T:C Major         Hezekiah Moors, 1809
T:Transcribed from Province Harmony, 1809.
T:Isaac Watts, 1707 (Hymn 87, Book 2)           86. 86. (C. M.)
%%score [ 1 2 3 4 ]
L:1/8
Q:1/4=100
M:2/2
K:C
V:1 treble nm="Tr." snm="Tr."
V:2 treble nm="C." snm="C."
V:3 treble-8 nm="T." snm="T."
V:4 bass nm="B." snm="B."
V:1
 c4 e2 d2 | c2 B2 AB c2 | B6 c2 | c2 BA GA G2 | G6 z2 |: z8 | z8 | z4 z2 c2 | e2 e2 e2 f2 | %9
w: In hum- ble|notes our faith * a-|dores The|great my- * ste- * rious|King,|||While|an- gels strain their|
 e2 e2 e2 d2 | e6 d2 | c4 A4 | B6 B2 | (cded c2 e2 | fedc B2) cB | A4 G4 |1 G6 z2 :|2 G8 |] %18
w: no- bler powers, and|sweep th'im-|mor- tal|string, And|sweep  _ _ _ _ _|_ _ _ _ _ th'im- *|mor- tal|string.||
V:2
 G4 G2 G2 | G2 G2 G2 ^F2 | G6 G2 | G2 G2 GF ED | E6 z2 |: z8 | z4 z2 A2 | G2 G2 G2 G2 | E4 A4 | %9
w: In hum- ble|notes our faith a-|dores The|great my- ste- * rious *|King.||While|an- gels strain their|no- bler|
 ^G6 =G2 | G2 G2 G2 G2 | G4 ^F4 | G6 G2 | (G4 E2 G2 | A6) G2 | (EFGF E2) D2 |1 E6 z2 :|2 E8 |] %18
w: powers, While|an- gels strain their|no- bler|powers, And|sweep  _ _|_ th'im-|mor- * * * * tal|string.||
V:3
 G4 c2 B2 | c2 d2 cB A2 | G6 G2 | c2 d2 c2 B2 | c6 z2 |: z4 z2 d2 | e2 e2 e2 f2 | d2 d2 d2 e2 | %8
w: In hum- ble|notes our faith * a-|dores The|great my- ste- rious|King,|While|an- gels strain their|no- bler powers, And|
 c2 c2 c>B A2 | B6 G2 | c2 c2 c2 d2 | e4 d4 | d6 d2 | (edcB A2 Bc | dcBA G2) AB | c4 B4 |1 %16
w: sweep th'im- mor- * tal|string, While|an- gels strain their|no- bler|powers, And|sweep  _ _ _ _ _ _|_ _ _ _ _ th'im- *|mor- tal|
 c6 z2 :|2 c8 |] %18
w: string.||
V:4
 C,4 C,2 G,2 | E,2 G,2 C,2 D,2 | G,,6 C,2 | C,2 G,F, E,F, G,2 | C,6 C,2 |: G,2 G,2 G,2 G,F, | %6
w: ||||* While|an- gels strain their *|
 E,2 E,2 E,2 D,2 | G,6 C,2 | C,4 A,,4 | E,6 G,2 | C,2 C,2 C,2 B,,2 | C,4 D,4 | G,,6 G,,2 | (C,8 | %14
w: no- bler powers, And|sweep th'im-|mor- tal|string, While|an- gels strain their|no- bler|powers, And|sweep |
 D,6) E,2 | (C,D,E,F, G,2) G,,2 |1 C,6 C,2 :|2 C,8 |] %18
w: _ th'im-|mor- * * * * tal|string. While||

